X:2832
T:Chansonnette
C:trad
H:Chanson de trouvère
A:Bas-Maine
O:France
M:4/4
L:1/4
Q:1/4=150
K:F
B2dd|c>B cd|d>c dB|B A/2G/2A2|d2dd|c/2B/2A/2G/2 AG|
FB2A|B4|z4|d2ee|f3f|fe/2d/2ee|d2d2|g2e/2d/2c/2B/2|c B>A A/2G/2|B2 z2|
d2ee|f3f|fe/2d/2dc|d4|d2cd|dc/2B/2B/2A/2A/2G/2|B2 z2|
d2dd|c3c|d3c|BA/2G/2A2|d3d|c3e|dc/2B/2BA|B2 z2|
B2dd|c3e|(3ddc dB|BA/2G/2A2|d2dd|c/2B/2A/2G/2 AG|FB2A|B4||
W:
W:A qui dit-elle sa pensée
W:La fille qui n'a point d'amy?
W:La fille qui n'a point d'amy
W:Vit en tristesse
W:Elle ne dort ne jour ne nuyt
W:Elle a la puce à l'oreille
W:Qui la garde.


